Papirus/32x32/apps/pop-shop.svg

<svg width="32" height="32" version="1.1" xmlns="http://www.w3.org/2000/svg">
 <style id="style14986">.measure-arrow
{
}
.measure-label
{

}
.measure-line
{
}</style>
 <defs>
  <filter id="selectable_hidder_filter" x="0" y="0" width="1" height="1" style="color-interpolation-filters:sRGB">
   <feComposite id="boolops_hidder_primitive" in="BackgroundImage" in2="SourceGraphic" operator="arithmetic" result="composite1"/>
  </filter>
 </defs>
 <g>
  <g>
   <path d="m8 4h19.75a2.25 2.25 45 0 1 2.25 2.25v18.75h-22z" style="fill:#fcb96f"/>
   <g>
    <path class="UnoptimicedTransforms" d="m8 17c11 0 14 1 22 3.5v4.5h-22z" style="fill:#fada7b"/>
    <g>
     <path class="UnoptimicedTransforms" transform="translate(0,1)" d="m8 17c11 0 14 1 22 3.5v4.5h-22z" style="fill:#0000ff;filter:url(#selectable_hidder_filter)"/>
     <path class="UnoptimicedTransforms" d="m8 17v1c11 0 14 1 22 3.5v-1c-8-2.5-11-3.5-22-3.5z" style="fill:#ffffff;opacity:.2"/>
    </g>
   </g>
   <path d="m8 25h22v1.75a2.25 2.25 135 0 1-2.25 2.25h-19.75z" style="fill:#554741"/>
   <g>
    <path d="m4.25 4h3.75v25h-3.75a2.25 2.25 45 0 1-2.25-2.25v-20.5a2.25 2.25 135 0 1 2.25-2.25z" style="fill:#aaa09b"/>
    <g>
     <circle cx="5" cy="23" r="1" style="fill:#8a7d77"/>
     <circle cx="5" cy="19" r="1" style="fill:#8a7d77"/>
     <circle cx="5" cy="15" r="1" style="fill:#8a7d77"/>
     <g>
      <rect class="UnoptimicedTransforms" x="5" y="10" width="14" height="2" style="fill:#8a7d77;filter:url(#selectable_hidder_filter)"/>
      <path class="UnoptimicedTransforms" d="m5 10c-0.5522847 0-1 0.447715-1 1s0.4477153 1 1 1h14v-2z" style="fill:#8a7d77"/>
     </g>
     <circle cx="5" cy="7" r="1" style="fill:#8a7d77"/>
    </g>
   </g>
   <g>
    <path class="UnoptimicedTransforms" x="2" y="7" width="28" height="23" ry="2.25" d="m2 26.75v1c0 1.2465 1.0035 2.25 2.25 2.25h23.5c1.2465 0 2.25-1.0035 2.25-2.25v-1c0 1.2465-1.0035 2.25-2.25 2.25h-23.5c-1.2465 0-2.25-1.0035-2.25-2.25z" style="fill-rule:evenodd;opacity:.2"/>
    <rect class="UnoptimicedTransforms" x="2" y="5" width="28" height="24" rx="2.25" ry="2.25" style="fill:#0000ff;filter:url(#selectable_hidder_filter)"/>
    <path class="UnoptimicedTransforms" x="2" y="4" width="28" height="23" ry="2.25" d="M 4.25,4 C 3.0035,4 2,5.0035 2,6.25 v 1 C 2,6.0035 3.0035,5 4.25,5 h 23.5 C 28.9965,5 30,6.0035 30,7.25 v -1 C 30,5.0035 28.9965,4 27.75,4 Z" style="fill-rule:evenodd;fill:#ffffff;opacity:.2"/>
   </g>
  </g>
  <g>
   <g transform="translate(0,1.0000025)">
    <path class="UnoptimicedTransforms" d="m17.214 21.664s-0.206188 1.164125-0.225719 1.515687c-0.01274 0.22927-0.0055 0.473493 1e-3 0.615658 0.0031 0.06775 0.06076 0.134487 0.127823 0.146458 0.163304 0.02915 0.481504 0.07625 0.890694 0.08945 0.605486 0.019527 0.992202 0.023747 0.992202 0.023747v-2.355m1.786-0.036s0.206188 1.164125 0.225719 1.515687c0.01274 0.22927 0.0055 0.473493-1e-3 0.615658-0.0031 0.06775-0.06076 0.134487-0.127823 0.146458-0.163306 0.029149-0.481506 0.076247-0.890696 0.089447-0.605484 0.01953-0.9922 0.02375-0.9922 0.02375v-2.355" style="filter:url(#selectable_hidder_filter);opacity:.2"/>
    <path class="UnoptimicedTransforms" transform="translate(-.00197886)" d="m19 15h-3.156c-0.06422 0-0.126003 0.02458-0.172674 0.06869l-2.659092 2.513388c-0.14178 0.134011-0.238035 0.309057-0.275253 0.500565l-1.688438 8.687976s-0.09265 0.404967-0.01657 0.447462c0.12084 0.06749 0.309356-0.336956 0.309356-0.336956l3.424961-6.158641c0.144808-0.260389 0.433216-0.40677 0.728877-0.36994l1.306367 0.162731c0.132184 0.016468 0.265261 0.024725 0.398466 0.024725h1.8m0-5.54h3.156c0.06422 0 0.126003 0.02458 0.172674 0.06869l2.659092 2.513388c0.14178 0.134011 0.238035 0.309057 0.275253 0.500565l1.688438 8.687976s0.09265 0.404967 0.01657 0.447462c-0.12084 0.06749-0.309356-0.336956-0.309356-0.336956l-3.424961-6.158639c-0.144808-0.260389-0.433216-0.40677-0.728877-0.36994l-1.306367 0.162731c-0.132184 0.016466-0.265261 0.024723-0.398466 0.024723h-1.8" style="filter:url(#selectable_hidder_filter);opacity:.2"/>
    <path class="UnoptimicedTransforms" transform="matrix(1.0006514 0 0 .99996491 -.01237706 .0007720031)" d="m17.215846 21.664957c-0.0065 0.03658-0.207053 1.168889-0.226255 1.514772-0.01273 0.229278-0.0046 0.473086 2e-3 0.615256 0.0031 0.06776 0.05985 0.134519 0.126871 0.146489 0.163197 0.02915 0.481121 0.07665 0.890044 0.08985 0.605043 0.019528 0.991494 0.023436 0.991494 0.023436s0.386452-0.0039 0.991543-0.02344c0.408923-0.0132 0.726847-0.0607 0.890044-0.08985 0.06702-0.01197 0.123753-0.07873 0.126871-0.146489 0.0065-0.14217 0.01468-0.385978 2e-3 -0.615256-0.0192-0.345883-0.219765-1.478196-0.226255-1.514772 5.97e-4 -3.02e-4 0.0012-6.04e-4 0.0018-9.07e-4 0 1e-6 -0.0019-0.146023 0.0039-0.222664 0.0074-0.09778 0.0782-0.218629 0.206896-0.908234 0.0664-0.0041 0.13304-0.0093 0.199089-0.01758l1.303838-0.162115c0.295468-0.03683 0.58528 0.108756 0.729993 0.369153l3.421599 6.158419s0.189584 0.405395 0.310345 0.337903c0.07603-0.0425-0.01757-0.447282-0.01757-0.447282l-1.686402-8.689758c-0.03719-0.191514-0.133524-0.366001-0.275211-0.500017l-2.658425-2.51376c-0.04664-0.04411-0.107586-0.06836-0.171763-0.06836h-0.28497c0.195311-1.320313 0.13277-2.484515 0.06246-4.00014-0.070362-1.515622-0.557853-3.7118701-1.214102-6.0002076-0.353879-1.2343623-0.675001-2.093863-1.135979-3.0001052-0.359581-0.7069047-0.579701-0.6992434-0.579701-0.6992434s-0.220119-0.00766-0.5797 0.6992434c-0.460978 0.9062422-0.7821 1.7657429-1.135979 3.0001052-0.656249 2.2883375-1.14374 4.4845856-1.214053 6.0002106-0.07031 1.515625-0.132853 2.679827 0.06246 4.00014h-0.288874c-0.06418 0-0.125123 0.02425-0.171763 0.06836l-2.658424 2.51376c-0.141688 0.134016-0.238018 0.308503-0.275212 0.500017l-1.686401 8.689758s-0.0936 0.404786-0.01757 0.447282c0.120762 0.06749 0.310345-0.337903 0.310345-0.337903l3.421599-6.158419c0.144714-0.260397 0.434525-0.405984 0.729994-0.369153l1.303837 0.162115c0.06734 0.0084 0.135287 0.01346 0.202993 0.01758 0.128698 0.689605 0.199541 0.81045 0.206896 0.908234 0.0058 0.07664 0.0039 0.222666 0.0039 0.222664 5.97e-4 3.03e-4 0.0012 6.05e-4 0.0018 9.07e-4z" style="opacity:.2"/>
   </g>
   <path class="UnoptimicedTransforms" d="m17.214 21.664s-0.206188 1.164125-0.225719 1.515687c-0.01274 0.22927-0.0055 0.473493 1e-3 0.615658 0.0031 0.06775 0.06076 0.134487 0.127823 0.146458 0.163304 0.02915 0.481504 0.07625 0.890694 0.08945 0.605486 0.019527 0.992202 0.023747 0.992202 0.023747v-2.355m1.786-0.036s0.206188 1.164125 0.225719 1.515687c0.01274 0.22927 0.0055 0.473493-1e-3 0.615658-0.0031 0.06775-0.06076 0.134487-0.127823 0.146458-0.163306 0.029149-0.481506 0.076247-0.890696 0.089447-0.605484 0.01953-0.9922 0.02375-0.9922 0.02375v-2.355" style="fill:#d9d9d9"/>
   <path class="UnoptimicedTransforms" transform="translate(-.00197886)" d="m19 15h-3.156c-0.06422 0-0.126003 0.02458-0.172674 0.06869l-2.659092 2.513388c-0.14178 0.134011-0.238035 0.309057-0.275253 0.500565l-1.688438 8.687976s-0.09265 0.404967-0.01657 0.447462c0.12084 0.06749 0.309356-0.336956 0.309356-0.336956l3.424961-6.158641c0.144808-0.260389 0.433216-0.40677 0.728877-0.36994l1.306367 0.162731c0.132184 0.016468 0.265261 0.024725 0.398466 0.024725h1.8m0-5.54h3.156c0.06422 0 0.126003 0.02458 0.172674 0.06869l2.659092 2.513388c0.14178 0.134011 0.238035 0.309057 0.275253 0.500565l1.688438 8.687976s0.09265 0.404967 0.01657 0.447462c-0.12084 0.06749-0.309356-0.336956-0.309356-0.336956l-3.424961-6.158639c-0.144808-0.260389-0.433216-0.40677-0.728877-0.36994l-1.306367 0.162731c-0.132184 0.016466-0.265261 0.024723-0.398466 0.024723h-1.8" style="fill:#ececec"/>
   <path class="UnoptimicedTransforms" transform="matrix(1.0006514 0 0 .99996491 -.01237706 .0007720031)" d="m19 1.2992736s-0.220041-0.00688-0.579622 0.7000246c-0.460978 0.9062422-0.781344 1.7664679-1.135222 3.0008302-0.65625 2.2883375-1.144531 4.4842466-1.214844 5.9998716-0.070312 1.515625-0.132812 2.679687 0.0625 4 0.195313 1.320312 0.585938 3.78125 0.777344 5s0.29177 1.321505 0.300789 1.441407c0.0058 0.07664 0.0039 0.222655 0.0039 0.222655 0.544278 0.276042 1.190107 0.302084 1.785155 0.335938m0-20.700726s0.220041-0.00688 0.579622 0.7000246c0.460978 0.9062422 0.781344 1.7664679 1.135222 3.0008302 0.65625 2.2883375 1.144531 4.4842466 1.214844 5.9998716 0.070312 1.515625 0.132812 2.679687-0.0625 4-0.195313 1.320312-0.585938 3.78125-0.777344 5s-0.29177 1.321505-0.300789 1.441407c-0.0058 0.07664-0.0039 0.222655-0.0039 0.222655-0.544278 0.276042-1.190107 0.302084-1.785155 0.335938" style="fill:#ffffff"/>
   <g style="fill:#fada7b">
    <path class="UnoptimicedTransforms" d="m16.90625 17.015625s0.457031 0.08984 1.09375 0.136719c0.636719 0.04687 1 0.03906 1 0.03906v0.858596s-0.5625 0.0086-1-0.04219c-0.41634-0.04832-0.96875-0.136718-0.96875-0.136718zm4.1875 0s-0.457031 0.08984-1.09375 0.136719c-0.636719 0.04687-1 0.03906-1 0.03906v0.858596s0.5625 0.0086 1-0.04219c0.41634-0.04832 0.96875-0.136718 0.96875-0.136718z" style="fill:#fada7b;filter:url(#selectable_hidder_filter)"/>
    <path class="UnoptimicedTransforms" d="m16.830078 16.212891 0.125 0.8125c0.110703 0.02028 0.503119 0.08706 1.044922 0.126953 0.636719 0.04687 1 0.03906 1 0.03906v-0.751953s-0.54701 8.92e-4 -1-0.04883c-0.45299-0.04972-1.169922-0.177734-1.169922-0.177734zm0.25586 1.666015 0.123046 0.798828s0.371171 0.0899 0.791016 0.123047c0.419844 0.03315 1 0.03906 1 0.03906v-0.789063s-0.5625 0.0078-1-0.04297c-0.381707-0.0443-0.834172-0.116238-0.914062-0.128906zm4.083984-1.666015-0.125 0.8125c-0.110703 0.02028-0.503119 0.08706-1.044922 0.126953-0.636719 0.04687-1 0.03906-1 0.03906v-0.751953s0.54701 8.92e-4 1-0.04883c0.45299-0.04972 1.169922-0.177734 1.169922-0.177734zm-0.25586 1.666015-0.123046 0.798828s-0.371171 0.0899-0.791016 0.123047c-0.419844 0.03315-1 0.03906-1 0.03906v-0.789063s0.5625 0.0078 1-0.04297c0.381707-0.0443 0.834172-0.116238 0.914062-0.128906z" style="fill:#fada7b"/>
   </g>
   <path class="UnoptimicedTransforms" d="m 19,4.3 c 0,0 -0.872302,0.018818 -1.007813,0.1609375 -0.13832,0.145065 -0.230469,0.4296875 -0.230469,0.4296875 0,0 -0.09375,0.28125 -0.109374,0.4921875 -0.01563,0.2109375 -0.01172,0.3164062 5e-6,0.390625 0.01172,0.074219 0.0586,0.1367187 0.144531,0.1992187 0.08594,0.0625 0.136719,0.140625 0.488281,0.2578125 C 18.588081,6.3314422 19,6.33 19,6.33 M 19,4.3 c 0,0 0.872302,0.018818 1.007813,0.1609375 0.13832,0.145065 0.230469,0.4296875 0.230469,0.4296875 0,0 0.09375,0.28125 0.109374,0.4921875 0.01563,0.2109375 0.01172,0.3164062 -5e-6,0.390625 -0.01172,0.074219 -0.0586,0.1367187 -0.144531,0.1992187 -0.08594,0.0625 -0.136719,0.140625 -0.488281,0.2578125 C 19.411919,6.3314422 19,6.33 19,6.33" style="fill:#47b9c8"/>
  </g>
 </g>
</svg>

<svg xmlns="http://www.w3.org/2000/svg" width="32" height="32" version="1.1">
 <path style="fill:#fcb96f" d="M 8,4 H 27.75 C 28.993,4 30,5.0074 30,6.25 V 25 L 29,26 H 7 V 5 Z"/>
 <path style="fill:#fada7b" d="M 8,17 C 19,17 22,18 30,20.5 V 25 H 8 Z"/>
 <path style="opacity:0.2;fill:#ffffff" d="M 8,17 V 18 C 19,18 22,19 30,21.5 V 20.5 C 22,18 19,17 8,17 Z"/>
 <path style="fill:#554741" d="M 8,25 H 30 V 26.75 A 2.25,2.25 0 0 1 27.75,29 H 8 Z"/>
 <path style="fill:#aaa09b" d="M 4.25,4 H 8 V 29 H 4.25 A 2.25,2.25 0 0 1 2,26.75 V 6.25 A 2.25,2.25 0 0 1 4.25,4 Z"/>
 <circle style="fill:#8a7d77" cx="5" cy="23" r="1"/>
 <circle style="fill:#8a7d77" cx="5" cy="19" r="1"/>
 <circle style="fill:#8a7d77" cx="5" cy="15" r="1"/>
 <path style="fill:#8a7d77" d="M 5,10 C 4.4477,10 4,10.448 4,11 4,11.552 4.4477,12 5,12 H 19 V 10 Z"/>
 <circle style="fill:#8a7d77" cx="5" cy="7" r="1"/>
 <path style="opacity:0.2" d="M 2,26.75 V 27.75 C 2,28.996 3.0035,30 4.25,30 H 27.75 C 28.996,30 30,28.996 30,27.75 V 26.75 C 30,27.996 28.996,29 27.75,29 H 4.25 C 3.0035,29 2,27.996 2,26.75 Z"/>
 <path style="opacity:0.2;fill:#ffffff" d="M 4.25,4 C 3.0035,4 2,5.0035 2,6.25 V 7.25 C 2,6.0035 3.0035,5 4.25,5 H 27.75 C 28.996,5 30,6.0035 30,7.25 V 6.25 C 30,5.0035 28.996,4 27.75,4 Z"/>
 <path style="opacity:0.2" d="M 17.216,22.665 C 17.209,22.702 17.009,23.834 16.99,24.18 16.977,24.409 16.985,24.653 16.992,24.795 16.995,24.863 17.051,24.93 17.118,24.941 17.282,24.971 17.6,25.018 18.009,25.031 18.615,25.051 19.001,25.055 19.001,25.055 19.001,25.055 19.387,25.051 19.994,25.031 20.402,25.018 20.72,24.971 20.884,24.941 20.951,24.929 21.007,24.863 21.01,24.795 21.017,24.653 21.025,24.409 21.012,24.18 20.993,23.834 20.793,22.702 20.786,22.665 20.787,22.665 20.787,22.664 20.788,22.664 20.788,22.664 20.786,22.518 20.792,22.441 20.799,22.344 20.87,22.223 20.999,21.533 21.065,21.529 21.132,21.524 21.198,21.516 L 22.503,21.353 C 22.799,21.317 23.089,21.462 23.234,21.723 L 26.657,27.881 C 26.657,27.881 26.847,28.286 26.968,28.219 27.045,28.176 26.95,27.772 26.95,27.772 L 25.263,19.082 C 25.226,18.89 25.129,18.716 24.987,18.582 L 22.327,16.068 C 22.28,16.024 22.219,16 22.155,16 H 21.87 C 22.066,14.679 22.003,13.515 21.933,12 21.862,10.484 21.375,8.2882 20.718,6 20.364,4.7656 20.043,3.9062 19.581,3 19.221,2.2931 19.001,2.3008 19.001,2.3008 19.001,2.3008 18.781,2.2931 18.421,3 17.959,3.9062 17.638,4.7656 17.284,6 16.627,8.2882 16.14,10.484 16.069,12 15.999,13.515 15.936,14.679 16.132,16 H 15.843 C 15.779,16 15.718,16.024 15.671,16.068 L 13.011,18.582 C 12.869,18.716 12.773,18.89 12.735,19.082 L 11.047,27.772 C 11.047,27.772 10.953,28.176 11.029,28.219 11.15,28.286 11.341,27.881 11.341,27.881 L 14.764,21.723 C 14.909,21.462 15.199,21.317 15.494,21.353 L 16.799,21.516 C 16.867,21.524 16.935,21.529 17.003,21.533 17.132,22.223 17.203,22.344 17.21,22.441 17.216,22.518 17.214,22.664 17.214,22.664 17.215,22.664 17.215,22.665 17.216,22.665 Z"/>
 <path style="fill:#d9d9d9" d="M 17.214,21.664 C 17.214,21.664 17.008,22.828 16.988,23.18 16.976,23.409 16.983,23.653 16.989,23.795 16.992,23.863 17.05,23.93 17.117,23.942 17.28,23.971 17.599,24.018 18.008,24.031 18.613,24.051 19,24.055 19,24.055 V 21.7 M 20.786,21.664 C 20.786,21.664 20.992,22.828 21.012,23.18 21.024,23.409 21.017,23.653 21.011,23.795 21.008,23.863 20.95,23.93 20.883,23.942 20.72,23.971 20.401,24.018 19.992,24.031 19.387,24.051 19,24.055 19,24.055 V 21.7"/>
 <path style="fill:#ececec" d="M 18.998,15 H 15.842 C 15.778,15 15.716,15.025 15.669,15.069 L 13.01,17.582 C 12.868,17.716 12.772,17.891 12.735,18.083 L 11.047,26.771 C 11.047,26.771 10.954,27.176 11.03,27.218 11.151,27.286 11.339,26.881 11.339,26.881 L 14.764,20.722 C 14.909,20.462 15.198,20.316 15.493,20.353 L 16.8,20.515 C 16.932,20.532 17.065,20.54 17.198,20.54 H 18.998 M 18.998,15 H 22.154 C 22.218,15 22.28,15.025 22.327,15.069 L 24.986,17.582 C 25.128,17.716 25.224,17.891 25.261,18.083 L 26.949,26.771 C 26.949,26.771 27.042,27.176 26.966,27.218 26.845,27.286 26.657,26.881 26.657,26.881 L 23.232,20.722 C 23.087,20.462 22.798,20.316 22.503,20.353 L 21.196,20.515 C 21.064,20.532 20.931,20.54 20.798,20.54 H 18.998"/>
 <path style="fill:#ffffff" d="M 19.001,1.3 C 19.001,1.3 18.781,1.2931 18.421,2 17.959,2.9062 17.639,3.7664 17.285,5.0007 16.628,7.289 16.14,9.4848 16.069,11 15.999,12.516 15.937,13.68 16.132,15 16.327,16.32 16.718,18.781 16.909,20 17.102,21.219 17.202,21.322 17.211,21.441 17.217,21.518 17.215,21.664 17.215,21.664 17.759,21.94 18.406,21.966 19.001,22 M 19.001,1.3 C 19.001,1.3 19.221,1.2931 19.581,2 20.043,2.9062 20.363,3.7664 20.717,5.0007 21.374,7.289 21.862,9.4848 21.933,11 22.003,12.516 22.066,13.68 21.87,15 21.675,16.32 21.284,18.781 21.092,20 20.9,21.219 20.8,21.322 20.791,21.441 20.785,21.518 20.787,21.664 20.787,21.664 20.243,21.94 19.596,21.966 19.001,22"/>
 <path style="fill:#fada7b" d="M 16.83,16.213 16.955,17.025 C 17.066,17.046 17.458,17.112 18,17.152 18.637,17.199 19,17.191 19,17.191 V 16.439 C 19,16.439 18.453,16.44 18,16.391 17.547,16.341 16.83,16.213 16.83,16.213 Z M 17.086,17.879 17.209,18.678 C 17.209,18.678 17.58,18.768 18,18.801 18.42,18.834 19,18.84 19,18.84 V 18.051 C 19,18.051 18.437,18.059 18,18.008 17.618,17.964 17.166,17.892 17.086,17.879 Z M 21.17,16.213 21.045,17.025 C 20.934,17.046 20.542,17.112 20,17.152 19.363,17.199 19,17.191 19,17.191 V 16.439 C 19,16.439 19.547,16.44 20,16.391 20.453,16.341 21.17,16.213 21.17,16.213 Z M 20.914,17.879 20.791,18.678 C 20.791,18.678 20.42,18.768 20,18.801 19.58,18.834 19,18.84 19,18.84 V 18.051 C 19,18.051 19.563,18.059 20,18.008 20.382,17.964 20.834,17.892 20.914,17.879 Z"/>
 <path style="fill:#47b9c8" d="M 19,4.3 C 19,4.3 18.128,4.3188 17.992,4.4609 17.854,4.606 17.762,4.8906 17.762,4.8906 17.762,4.8906 17.668,5.1719 17.652,5.3828 17.637,5.5937 17.641,5.6992 17.652,5.7734 17.664,5.8477 17.711,5.9102 17.797,5.9727 17.883,6.0352 17.934,6.1133 18.285,6.2305 18.588,6.3314 19,6.33 19,6.33 M 19,4.3 C 19,4.3 19.872,4.3188 20.008,4.4609 20.146,4.606 20.238,4.8906 20.238,4.8906 20.238,4.8906 20.332,5.1719 20.348,5.3828 20.363,5.5937 20.359,5.6992 20.348,5.7734 20.336,5.8477 20.289,5.9102 20.203,5.9727 20.117,6.0352 20.066,6.1133 19.715,6.2305 19.412,6.3314 19,6.33 19,6.33"/>
</svg>
